svg/window_shutter.svg

<svg xmlns="http://www.w3.org/2000/svg" viewBox="0 0 24 24"><path d="M3 4h18v4h-2v12h-2V8H7v12H5V8H3zm5 5h8v2H8zm0 3h8v2H8zm0 3h8v2H8zm0 3h8v2H8z"/></svg>

<?xml version="1.0" encoding="UTF-8"?><!DOCTYPE svg PUBLIC "-//W3C//DTD SVG 1.1//EN" "http://www.w3.org/Graphics/SVG/1.1/DTD/svg11.dtd"><svg xmlns="http://www.w3.org/2000/svg" xmlns:xlink="http://www.w3.org/1999/xlink" version="1.1" id="mdi-window-shutter" width="24" height="24" viewBox="0 0 24 24"><path d="M3 4H21V8H19V20H17V8H7V20H5V8H3V4M8 9H16V11H8V9M8 12H16V14H8V12M8 15H16V17H8V15M8 18H16V20H8V18Z" /></svg>
